images/plus.svg

<?xml version="1.0" encoding="UTF-8"?>
<svg version="1.1" viewBox="0 0 30 30" xmlns="http://www.w3.org/2000/svg" xmlns:xlink="http://www.w3.org/1999/xlink">
<defs>
<style>.cls-1{fill:#5865f2;}</style>
</defs>
<path d="m12.75 0v12.75h-12.75v4.5h12.75v12.75h4.5v-12.75h12.75v-4.5h-12.75v-12.75z" color="#000000" fill="#999" style="-inkscape-stroke:none"/>
</svg>

<?xml version="1.0" encoding="UTF-8" standalone="no"?>
<!-- Created with Inkscape (http://www.inkscape.org/) -->

<svg
   width="30"
   height="30"
   viewBox="0 0 30 30"
   version="1.1"
   id="svg5"
   sodipodi:docname="plus.svg"
   inkscape:version="1.1.1 (c3084ef, 2021-09-22)"
   xmlns:inkscape="http://www.inkscape.org/namespaces/inkscape"
   xmlns:sodipodi="http://sodipodi.sourceforge.net/DTD/sodipodi-0.dtd"
   xmlns:xlink="http://www.w3.org/1999/xlink"
   xmlns="http://www.w3.org/2000/svg"
   xmlns:svg="http://www.w3.org/2000/svg">
  <sodipodi:namedview
     id="namedview116"
     pagecolor="#505050"
     bordercolor="#eeeeee"
     borderopacity="1"
     inkscape:pageshadow="0"
     inkscape:pageopacity="0"
     inkscape:pagecheckerboard="0"
     showgrid="false"
     fit-margin-top="0"
     fit-margin-left="0"
     fit-margin-right="0"
     fit-margin-bottom="0"
     inkscape:zoom="0.572"
     inkscape:cx="209.79021"
     inkscape:cy="373.25175"
     inkscape:window-width="1280"
     inkscape:window-height="800"
     inkscape:window-x="0"
     inkscape:window-y="0"
     inkscape:window-maximized="0"
     inkscape:current-layer="svg5"
     inkscape:lockguides="true" />
  <defs
     id="defs2">
    <style
       id="style173">.cls-1{fill:#5865f2;}</style>
    <linearGradient
       id="linearGradient21501">
      <stop
         style="stop-color:#8300ff;stop-opacity:1"
         offset="0"
         id="stop21497" />
      <stop
         style="stop-color:#00c2ff;stop-opacity:1"
         offset="1"
         id="stop21499" />
    </linearGradient>
    <linearGradient
       xlink:href="#linearGradient21501"
       id="linearGradient21495"
       x1="550"
       y1="400"
       x2="1600"
       y2="1600"
       gradientUnits="userSpaceOnUse"
       gradientTransform="matrix(0.125,0,0,0.125,35.651263,261.47325)" />
  </defs>
  <g
     id="layer1"
     transform="translate(-81.919724)" />
  <path
     id="path105139"
     style="color:#000000;fill:#999999;stroke-width:1;-inkscape-stroke:none"
     d="M 12.75,0 V 12.75 H 0 v 4.5 H 12.75 V 30 h 4.5 V 17.25 H 30 v -4.5 H 17.25 V 0 Z" />
</svg>
